!!!!SEGMENT: pl-kk--kk-i-1--004-004_jachet-de-mantua--missa-quam-pulchra-es-sanctus.krn
!!!cenid: 15xx:671
!!!COM: Jachet de Mantua
!!!COM-rismid: pe30003816
!!!CDT:
!!!CNT:
!!!OPR: [Missa] Quam pulchra es
!!!OTL: Sanctus
!!!OMV: 004
!!!PDT:
!!!AGN:
!!!SMS-siglum: PL-Kk
!!!SMS-shelfmark: Kk.I.1
!!!SMS-shelfwork: 004-004 M
!!!SMS-variant:
!!!SMS-altvar:
!!!NIFC-rismid: 300257958
!!!URL-scan: http://repozytorium.nifc.pl/skany/pl-kk-nut--i-1
!!!ONB-nifc: UWAGA: Cantus (s. 21v-30v, skan 0024-0033), Altus (s. 21r-31r, skan 0213-0223), Tenor (s. 22r-31r, skan 0410-0419), Bassus (s. 20v-30r, skan 0582-0591). Części Mszy: 1. Kyrie, 2. Et in terra, 3. Patrem, 4. Sanctus, 5. Agnus Dei
!!!AIN: 3 empty 1 tenor
!!!key: F
**kern	**text	**kern	**text	**kern	**text	**kern	**text
*part4	*part4	*part3	*part3	*part2	*part2	*part1	*part1
*staff4	*staff4	*staff3	*staff3	*staff2	*staff2	*staff1	*staff1
*Iempty	*	*Itenor	*	*Iempty	*	*Iempty	*
*I"BASSVS	*	*I"TENOR	*	*I"ALTVS	*	*I"CANTVS	*
*I'B	*	*I'T	*	*I'A	*	*I'C	*
*clefF4	*	*clefC4	*	*clefC4	*	*clefC4	*
*k[b-]	*	*k[b-]	*	*k[b-]	*	*k[b-]	*
*F:	*	*F:	*	*F:	*	*F:	*
*M2/1	*	*M2/1	*	*M2/1	*	*M2/1	*
*met(c|)	*	*met(c|)	*	*met(c|)	*	*met(c|)	*
=1	=1	=1	=1	=1	=1	=1	=1
0r	.	0r	.	0F	SAn-	0r	.
=2	=2	=2	=2	=2	=2	=2	=2
!	!	!	!	!LO:TX:t=P:problem=kreska pseudotaktowa	!	!	!
0r	.	0r	.	1F	-ctus;	0r	.
.	.	.	.	1B-	.	.	.
=3	=3	=3	=3	=3	=3	=3	=3
!	!	!	!	!LO:TX:t=P:problem=kreska pseudotaktowa	!	!	!
0r	.	0r	.	1A	.	0F	San-
.	.	.	.	2r	.	.	.
*	*	*	*	*	*ij	*	*
.	.	.	.	2A/	SAn-	.	.
=4	=4	=4	=4	=4	=4	=4	=4
!	!	!	!	!LO:TX:t=P:problem=kreska pseudotaktowa	!	!	!
*	*	*	*	*	*	*lig	*
0r	.	0r	.	1c	.	1F	-ctus;
.	.	.	.	1d	.	1B-	.
*	*	*	*	*	*	*Xlig	*
=5	=5	=5	=5	=5	=5	=5	=5
!	!	!LO:TX:t=P:problem=kreska pseudotaktowa	!	!LO:TX:t=P:problem=kreska pseudotaktowa	!	!LO:TX:t=P:problem=kreska pseudotaktowa	!
0r	.	0F	SAn-	1c	.	1A	.
.	.	.	.	2A/	.	2r	.
*	*	*	*	*	*	*	*ij
.	.	.	.	1c	.	2A/	Sanc-
=6	=6	=6	=6	=6	=6	=6	=6
*	*	*lig	*	*	*	*	*
0r	.	1F	-ctus;	.	.	1c	.
.	.	.	.	4B-/	.	.	.
!	!	!	!	!LO:TX:t=P:problem=kreska pseudotaktowa	!	!	!
.	.	.	.	4A/	.	.	.
!	!	!	!	!	!	!LO:TX:t=P:problem=kreska pseudotaktowa	!
.	.	1B-	.	1G	.	1d	.
*	*	*Xlig	*	*	*	*	*
=7	=7	=7	=7	=7	=7	=7	=7
*	*	*	*	*custos:c	*	*	*
!LO:TX:t=P:problem=kreska pseudotaktowa	!	!LO:TX:t=P:problem=kreska pseudotaktowa	!	!	!	!	!
0FF	SAn-	1A	.	2C,/	-ctus	1c	.
!	!	!	!	!LO:LB:g=original	!	!	!
.	.	.	.	2.c\	SAn-	.	.
.	.	2r	.	.	.	2A/	.
.	.	.	.	4B-\	.	.	.
.	.	2A/	san-	4A/	.	2.c\	-tus
!	!	!	!	!LO:TX:t=P:problem=kreska pseudotaktowa	!	!	!
.	.	.	.	4G/	.	.	.
*	*	*	*	*	*	*	*Xij
=8	=8	=8	=8	=8	=8	=8	=8
1FF	-ctus,	1c	-ctus,	4F/	.	.	.
.	.	.	.	4G/	.	4B-/	.
.	.	.	.	1A	.	4A/	.
!	!	!	!	!	!	!LO:TX:t=P:problem=kreska pseudotaktowa	!
.	.	.	.	.	.	4G/	.
!	!	!LO:TX:t=P:problem=kreska pseudotaktowa	!	!	!	!	!
1BB-	.	1d	.	.	.	2F/	.
!	!	!	!	!LO:TX:t=P:problem=kreska pseudotaktowa	!	!	!
.	.	.	.	2G/	.	2D/	.
=9	=9	=9	=9	=9	=9	=9	=9
!LO:TX:t=P:problem=kreska pseudotaktowa	!	!	!	!LO:TX:t=P:problem=kreska pseudotaktowa	!	!	!
1AA	.	1c	.	0A	-ctus	4E/	.
*	*	*	*	*	*	*custos:c	*
.	.	.	.	.	.	4C/	.
!	!	!	!	!	!	!LO:LB:g=original	!
.	.	.	.	.	.	1c	san-
2r	.	2A/	.	.	.	.	.
*	*ij	*	*	*	*Xij	*	*
2FF/	SAn-	2.c\	.	.	.	4B-\	-ctus
!	!	!	!	!	!	!LO:TX:t=P:problem=kreska pseudotaktowa	!
.	.	.	.	.	.	4A\	.
=10	=10	=10	=10	=10	=10	=10	=10
*lig	*	*	*	*	*	*	*
1C	.	.	.	2r	.	2G/	.
.	.	4B-/	.	.	.	.	.
.	.	4A/	.	2c\	san-	1c	.
!	!	!LO:TX:t=P:problem=kreska pseudotaktowa	!	!	!	!	!
.	.	4G/	.	.	.	.	.
1D	.	2F/	.	2A\	.	.	.
.	.	2D/	.	2B-\	-ctus	2B-\	.
!	!	!LO:TX:t=P:problem=kreska pseudotaktowa	!	!LO:TX:t=P:problem=kreska pseudotaktowa	!	!LO:TX:t=P:problem=kreska pseudotaktowa	!
*Xlig	*	*	*	*	*	*	*
=11	=11	=11	=11	=11	=11	=11	=11
*	*	*custos:C	*	*	*	*	*
!LO:TX:t=P:problem=kreska pseudotaktowa	!	!	!	!	!	!	!
1C	-ctus	2E/	.	2.c\	.	2A/	.
!	!	!LO:TX:t=P:problem=kreska pseudotaktowa	!	!	!	!	!
!	!	!LO:LB:g=original	!	!	!	!	!
.	.	2C/	.	.	.	2.G/	.
.	.	.	.	8B-\L	.	.	.
.	.	.	.	8c\J	.	.	.
2r	.	1G	.	2d\	.	.	.
.	.	.	.	.	.	4F/	.
!	!	!	!	!LO:TX:t=P:problem=kreska pseudotaktowa	!	!	!
2C/	SAn-	.	.	2c\	.	8G/L	.
.	.	.	.	.	.	8F/	.
.	.	.	.	.	.	8E/	.
.	.	.	.	.	.	8D/J	.
=12	=12	=12	=12	=12	=12	=12	=12
!	!	!LO:TX:t=P:problem=kreska pseudotaktowa	!	!	!	!LO:TX:t=P:problem=kreska pseudotaktowa	!
1G	.	1E	.	2r	.	1C	.
.	.	.	.	2G/	do-	.	.
!	!	!	!	!LO:TX:t=P:problem=kreska pseudotaktowa	!	!	!
1A	.	2r	.	1c	-mi-	1r	.
*	*	*	*ij	*	*	*	*
.	.	2.c\	san-	.	.	.	.
=13	=13	=13	=13	=13	=13	=13	=13
*	*	*	*	*custos:c	*	*	*
!LO:TX:t=P:problem=kreska pseudotaktowa	!	!	!	!LO:TX:t=P:problem=kreska pseudotaktowa	!	!	!
1G	.	.	.	1d	-nuſ	2r	.
.	.	4A\	.	.	.	.	.
!	!	!LO:TX:t=P:problem=kreska pseudotaktowa	!	!	!	!LO:TX:t=P:problem=kreska pseudotaktowa	!
.	.	2B-\	.	.	.	2G/	do-
!LO:TX:t=P:problem=kreska pseudotaktowa	!	!	!	!	!	!	!
!	!	!	!	!LO:LB:g=original	!	!	!
1C	-ctus	2A/	.	2r	.	1c	-mi-
.	.	2.G/	.	2.c/	de-	.	.
=14	=14	=14	=14	=14	=14	=14	=14
2r	.	.	.	.	.	1d	-nus
.	.	4F/	.	4A/	-us	.	.
*custos:C	*	*	*	*	*	*	*
!LO:TX:t=P:problem=poprawka wysokości	!	!	!	!LO:TX:t=P:problem=kreska pseudotaktowa	!	!	!
2GG/	SAn-	8G/L	.	2B-/	ſab-	.	.
.	.	8F/	.	.	.	.	.
.	.	8E/	.	.	.	.	.
!	!	!LO:TX:t=P:problem=kreska pseudotaktowa	!	!	!	!	!
.	.	8D/J	.	.	.	.	.
!LO:LB:g=original	!	!	!	!	!	!	!
*lig	*	*	*	*	*	*	*ij
1C	.	1E	-ctus	2A/	-ba-	2r	.
.	.	.	.	1G	-oth,	2.c\	do-
*	*	*	*Xij	*	*	*	*
=15	=15	=15	=15	=15	=15	=15	=15
1D	.	2r	.	.	.	.	.
.	.	.	.	.	.	4A/	.
.	.	2F/	do-	2F/	.	2B-/	-mi-
*	*	*	*	*	*	*custos:B-	*
!	!	!	!	!	!	!LO:TX:t=P:problem=kreska pseudotaktowa	!
!	!	!LO:TX:t=P:problem=kreska pseudotaktowa	!	!LO:TX:t=P:problem=kreska pseudotaktowa	!	!	!
*Xlig	*	*	*	*	*	*	*
!LO:TX:t=P:problem=kreska pseudotaktowa	!	!	!	!	!	!	!
1C	-ctus	1c	-mi-	1E	.	2G/	-nus
*	*	*	*	*	*	*	*Xij
!	!	!	!	!	!	!LO:LB:g=original	!
.	.	.	.	.	.	1c	de-
*	*Xij	*	*	*	*	*	*
=16	=16	=16	=16	=16	=16	=16	=16
*	*	*custos:c	*	*	*	*	*
!	!	!LO:TX:t=P:problem=kreska pseudotaktowa	!	!	!	!	!
2r	.	1d	-nus	2D/	.	.	.
!	!	!	!	!	!	!LO:TX:t=P:problem=kreska pseudotaktowa	!
2GG/	Do-	.	.	1G	.	2B-\	-us
!	!	!LO:LB:g=original	!	!	!	!	!
2C/	-mi-	2r	.	.	.	2.c\	ſab-
!	!	!	!	!LO:TX:t=P:problem=kreska pseudotaktowa	!	!	!
2C/	-nus	2.c\	de-	2E/	.	.	.
.	.	.	.	.	.	4B-\	-ba-
=17	=17	=17	=17	=17	=17	=17	=17
1D	De-	.	.	1F	.	2A/	-oth
.	.	4A/	-us	.	.	.	.
!	!	!LO:TX:t=P:problem=kreska pseudotaktowa	!	!	!	!	!
.	.	2B-/	.	.	.	2F/	.
!LO:TX:t=P:problem=kreska pseudotaktowa	!	!	!	!	!	!	!
1C	-us	2G/	.	4E/	.	1c	.
.	.	.	.	4C/	.	.	.
!	!	!	!	!LO:TX:t=P:problem=kreska pseudotaktowa	!	!	!
*	*	*	*	*	*ij	*	*
.	.	2.A/	ſab-	2.c\	ſab-	.	.
=18	=18	=18	=18	=18	=18	=18	=18
!LO:TX:t=P:problem=pięc nut wykreślonych	!	!	!	!	!	!LO:TX:t=P:problem=kreska pseudotaktowa	!
2r	.	.	.	.	.	1A	.
.	.	4G/	-ba-	4B-\	.	.	.
!LO:TX:t=P:problem=kreska pseudotaktowa	!	!	!	!	!	!	!
!LO:TX:t=P:problem=poprawka wysokości	!	!	!	!	!	!	!
*	*ij	*	*	*	*	*	*ij
2FF/	Do-	1F	-oth;	2A\	-ba-	.	.
!	!	!	!	!LO:TX:t=P:problem=kreska pseudotaktowa	!	!	!
2C/	-mi-	.	.	1G	-oth	2r	.
2C/	-nus	2E/	.	.	.	2c\	ſab-
=19	=19	=19	=19	=19	=19	=19	=19
!	!	!LO:TX:t=P:problem=kreska pseudotaktowa	!	!	!	!	!
1D	De-	1F	.	2r	.	2A/	.
!	!	!	!	!LO:TX:t=P:problem=kreska pseudotaktowa	!	!	!
.	.	.	.	2F/	do-	2F/	.
*custos:FF	*	*	*	*	*	*	*
!LO:TX:t=P:problem=kreska pseudotaktowa	!	!	!	!	!	!	!
*	*	*	*	*	*	*lig	*
1C	.	1r	.	1.c	.	1G	-ba-
!LO:LB:g=original	!	!	!	!	!	!	!
=20	=20	=20	=20	=20	=20	=20	=20
*	*	*lig	*ij	*	*	*	*
1FF	-us	1F	do-	.	.	1A	.
.	.	.	.	2c\	-mi-	.	.
*	*	*	*	*custos:d	*	*	*
!	!	!	!	!LO:TX:t=P:problem=kreska pseudotaktowa	!	!	!
*	*Xij	*	*	*	*	*Xlig	*
1r	.	1B-	.	1d	-nus	1G	.
*	*	*Xlig	*	*	*	*	*
!	!	!	!	!LO:LB:g=original	!	!	!
=21	=21	=21	=21	=21	=21	=21	=21
!	!	!	!	!	!	!LO:TX:t=P:problem=kreska pseudotaktowa	!
2r	.	2G/	-mi-	1.c	de-	1C	-oth
*custos:FF	*	*	*	*	*	*	*
!	!	!LO:TX:t=P:problem=kreska pseudotaktowa	!	!	!	!	!
2FF/	ſab-	2.A/	-nus	.	.	.	.
*lig	*	*	*	*	*	*	*
1C	-ba-	.	.	.	.	2r	.
.	.	4G/	.	.	.	.	.
!	!	!	!	!LO:TX:t=P:problem=kreska pseudotaktowa	!	!	!
.	.	1G	de-	2c\	-us	2c\	ſab-
=22	=22	=22	=22	=22	=22	=22	=22
1D	.	.	.	1f	ſab-	2A\	-ba-
.	.	2F/	.	.	.	2B-\	.
*	*	*	*	*	*	*custos:c	*
!	!	!LO:TX:t=P:problem=kreska pseudotaktowa	!	!	!	!LO:TX:t=P:problem=kreska pseudotaktowa	!
*Xlig	*	*	*	*	*	*	*
*	*	*custos:C	*	*	*	*	*
!LO:TX:t=P:problem=kreska pseudotaktowa	!	!	!	!	!	!LO:TX:t=P:problem=kreska pseudotaktowa	!
0C	-oth	2G/	-us	1.e	.	1c	-oth
!	!	!LO:LB:g=original	!	!	!	!	!
.	.	4C/	ſab-	.	.	.	.
!	!	!LO:TX:t=P:problem=kreska pseudotaktowa	!	!	!	!	!
.	.	4D/	.	.	.	.	.
*	*	*	*	*	*	*	*Xij
!	!	!	!	!	!	!LO:LB:g=original	!
=23	=23	=23	=23	=23	=23	=23	=23
.	.	4E/	.	.	.	2r	.
.	.	4F/	.	.	.	.	.
!	!	!	!	!LO:TX:t=P:problem=kreska pseudotaktowa	!	!	!
.	.	2G/	-ba-	2c\	-ba-	2.c\	de-
!	!	!LO:TX:t=P:problem=kreska pseudotaktowa	!	!	!	!	!
2r	.	1C	-oth	1e	-oth	.	.
.	.	.	.	.	.	4B-/	-us
*	*ij	*	*	*	*Xij	*	*
2C/	ſab-	.	.	.	.	4G/	.
!	!	!	!	!	!	!LO:TX:t=P:problem=kreska pseudotaktowa	!
.	.	.	.	.	.	4A/	.
=24	=24	=24	=24	=24	=24	=24	=24
!	!	!	!	!LO:TX:t=P:problem=kreska pseudotaktowa	!	!	!
1G	-ba-	1r	.	1d	.	4B-\	.
.	.	.	.	.	.	4c\	.
.	.	.	.	.	.	2.d\	.
1A	.	2r	.	1r	.	.	.
.	.	.	.	.	.	4c\	.
!	!	!LO:TX:t=P:problem=kreska pseudotaktowa	!	!	!	!	!
.	.	2c\	do-	.	.	1c	ſab-
=25	=25	=25	=25	=25	=25	=25	=25
!LO:TX:t=P:problem=kreska pseudotaktowa	!	!	!	!	!	!	!
1G	-oth	2.d\	-mi-	2r	.	.	.
!	!	!	!	!LO:TX:t=P:problem=kreska pseudotaktowa	!	!LO:TX:t=P:problem=kreska pseudotaktowa	!
.	.	.	.	2G/	do-	2B-\	-ba-
.	.	4B-\	-nus	.	.	.	.
2r	.	2c\	de-	2A/	-mi-	2A/	-oth:
!	!	!LO:TX:t=P:problem=kreska pseudotaktowa	!	!	!	!	!
*	*Xij	*	*	*	*	*lig	*
2GG/	ſab-	2d\	.	2B-/	-nus	1G	.
=26	=26	=26	=26	=26	=26	=26	=26
*	*	*	*	*	*	*	*
1C	-ba-	1c	.	2G/	.	.	.
!	!	!	!	!LO:TX:t=P:problem=kreska pseudotaktowa	!	!	!
.	.	.	.	2c\	de-	1A	.
1D	.	1F	-us	2A/	-us	.	.
!	!	!LO:TX:t=P:problem=kreska pseudotaktowa	!	!	!	!	!
*	*	*	*	*	*	*Xlig	*
.	.	.	.	2B-\	ſab-	4G/	.
!	!	!	!	!	!	!LO:TX:t=P:problem=kreska pseudotaktowa	!
.	.	.	.	.	.	4F/	.
=27	=27	=27	=27	=27	=27	=27	=27
*	*	*col	*	*	*	*	*
!	!	!	!	!LO:TX:t=P:problem=kreska pseudotaktowa	!	!	!
0C	-oth:	1.G	ſab-	0c	-ba-	4E/	.
.	.	.	.	.	.	4D/	.
.	.	.	.	.	.	1F	.
.	.	2A\	.	.	.	2E/	.
*	*	*Xcol	*	*	*	*	*
=28	=28	=28	=28	=28	=28	=28	=28
0BB-	.	0B-	-ba-	0d	-oth:	00F	.
!	!	!	!	!	!	!LO:LB:g=original	!
=29	=29	=29	=29	=29	=29	=29	=29
*custos:C	*	*custos:F	*	*	*	*	*
!	!	!LO:TX:a:t=DVO	!	!	!	!	!
!LO:N:vis=00	!	!LO:N:vis=00	!	!LO:N:vis=00	!	!	!
0FF	.	0A	-oth	0c	.	.	.
*	*	*	*Xij	*	*	*	*
!LO:LB:g=original	!	!LO:LB:g=original	!	!	!	!	!
!	!	!	!	!LO:LB:g=original	!	!	!
=30||	=30||	=30||	=30||	=30||	=30||	=30||	=30||
!	!	!	!	!LO:TX:t=P:problem=tacet wydrapane	!	!LO:TX:t=P:problem=tacet wydrapane	!
!	!	!	!	!LO:TX:b:t=Pleni	!	!LO:TX:b:t=Pleni	!
0r	.	0F	Ple-	0ryy	.	1ryy	.
!	!	!	!	!	!	!LO:TX:t=P:problem=partie CiA do fragmentu Pleni sunt caeli dopisane później inną ręką w księdze Altus, na stronach 189-190 (zdjęcie 0383)	!
.	.	.	.	.	.	0fyy	Ple-
=31	=31	=31	=31	=31	=31	=31	=31
!LO:TX:t=P:problem=kreska pseudotaktowa	!	!LO:TX:t=P:problem=kreska pseudotaktowa	!	!	!	!	!
1r	.	1D	-ni	2ryy	.	.	.
.	.	.	.	2F/yy	Ple-	.	.
0C	Ple-	2.C/	.	2G/yy	-ni	1eyy	-ni
.	.	.	.	2A/yy	ſ(unt)	.	.
!	!	!LO:TX:t=P:problem=kreska pseudotaktowa	!	!	!	!	!
.	.	4D/	.	.	.	.	.
=32	=32	=32	=32	=32	=32	=32	=32
.	.	4E/	.	2G/yy	C(ae)-	1.cyy	ſ(unt)
.	.	4F/	.	.	.	.	.
.	.	2.G/	.	1Eyy	-li	.	.
1AA	-ni	.	.	.	.	.	.
.	.	4E/	.	.	.	.	.
!	!	!LO:TX:t=P:problem=kreska pseudotaktowa	!	!	!	!	!
.	.	2F/	.	2C/yy	et	4B-/yy	.
.	.	.	.	.	.	4A/yy	.
=33	=33	=33	=33	=33	=33	=33	=33
2.GG/	ſunt	2D/	.	1Gyy	T(er)-	1.B-yy	.
.	.	2.G/	.	.	.	.	.
!LO:TX:t=P:problem=kreska pseudotaktowa	!	!	!	!	!	!	!
4AA/	.	.	.	.	.	.	.
4BB-/	.	.	.	1Dyy	-ra	.	.
4C/	.	4F/	.	.	.	.	.
1D	.	4E/	.	.	.	2A/yy	C(ae)-
.	.	4D/	.	.	.	.	.
=34	=34	=34	=34	=34	=34	=34	=34
*	*	*custos:D	*	*	*	*	*
!	!	!LO:TX:t=P:problem=kreska pseudotaktowa	!	!	!	!	!
.	.	1E	.	2ryy	.	1Ayy	-li
!LO:TX:t=P:problem=kreska pseudotaktowa	!	!	!	!	!	!	!
*	*	*	*	*	*ij	*	*
2C/	coe-	.	.	2E/yy	Ple-	.	.
!	!	!LO:LB:g=original	!	!	!	!	!
2.F\	-li	2.D/	ſunt	2.A/yy	.	2.d\yy	.
!	!	!LO:TX:t=P:problem=kreska pseudotaktowa	!	!	!	!	!
4E\	.	4E/	.	4G/yy	.	4c\yy	.
=35	=35	=35	=35	=35	=35	=35	=35
2D/	.	4F/	.	2F/yy	.	2B-/yy	.
.	.	4G/	.	.	.	.	.
!LO:TX:t=P:problem=kreska pseudotaktowa	!	!	!	!	!	!	!
2C/	et	1A	.	2E/yy	.	2c/yy	.
1BB-	ter-	.	.	1Dyy	-ni	2.d\yy	.
!	!	!LO:TX:t=P:problem=kreska pseudotaktowa	!	!	!	!	!
.	.	2G/	.	.	.	.	.
.	.	.	.	.	.	4e\	.
=36	=36	=36	=36	=36	=36	=36	=36
4AA/	-ra	1.c	c(ae)-	1Ayy	ſ(unt)	2f\yy	.
4BB-/	.	.	.	.	.	.	.
4C/	.	.	.	.	.	2e\yy	.
!LO:TX:t=P:problem=kreska pseudotaktowa	!	!	!	!	!	!	!
4D/	.	.	.	.	.	.	.
4E\	.	.	.	2G/yy	.	1ryy	.
4C/	.	.	.	.	.	.	.
2.F\	.	4B-\	-li	2F/yy	.	.	.
!	!	!LO:TX:t=P:problem=kreska pseudotaktowa	!	!	!	!	!
.	.	4A\	.	.	.	.	.
=37	=37	=37	=37	=37	=37	=37	=37
*	*	*	*	*Xtuplet	*	*	*
!	!	!	!	!LO:TX:t=P:problem=trójdzielność zanotowana zmianą metrum znakiem 3 tylko w tym głosie na przestrzeni 4 nut	!	!	!
.	.	1G	.	3.c\yy	C(ae)-	2ryy	.
*custos:E	*	*	*	*	*	*	*
4D/	.	.	.	.	.	.	.
!LO:TX:t=P:problem=kreska pseudotaktowa	!	!	!	!	!	!	!
*	*	*	*	*	*	*	*ij
!LO:LB:g=original	!	!	!	!	!	!	!
2E\	.	.	.	6B-/yy	.	2c\yy	Ple-
.	.	.	.	6G/yy	.	.	.
.	.	.	.	6A/yy	.	.	.
2D/	.	2.F/	et:	2B-/yy	.	2d\yy	-ni
2.F\	.	.	.	2.A/yy	.	2c\yy	ſ(unt)
!	!	!LO:TX:t=P:problem=kreska pseudotaktowa	!	!	!	!	!
.	.	4G/	.	.	.	.	.
=38	=38	=38	=38	=38	=38	=38	=38
.	.	4A\	.	.	.	1.fyy	C(ae)-
4E\	.	4B-\	.	4G/yy	.	.	.
4D/	.	2.c\	.	4F/yy	.	.	.
!LO:TX:t=P:problem=kreska pseudotaktowa	!	!	!	!	!	!	!
4C/	.	.	.	4E/yy	.	.	.
*	*	*	*	*custos:G	*	*	*
1D	.	.	.	1Fyy	.	.	.
.	.	4A/	.	.	.	.	.
!	!	!LO:TX:t=P:problem=kreska pseudotaktowa	!	!	!	!	!
.	.	2B-\	.	.	.	4e\yy	.
.	.	.	.	.	.	4d\yy	.
!	!	!	!	!LO:LB:g=original	!	!	!
=39	=39	=39	=39	=39	=39	=39	=39
*	*	*custos:c	*	*	*	*	*
2.C/	.	2G/	.	0Gyy	-li	1.eyy	.
!	!	!LO:LB:g=original	!	!	!	!	!
.	.	2.c\	.	.	.	.	.
!LO:TX:t=P:problem=kreska pseudotaktowa	!	!	!	!	!	!	!
4D/	.	.	.	.	.	.	.
4E\	.	.	.	.	.	.	.
4F\	.	4B-/	.	.	.	.	.
*	*ij	*	*	*	*	*	*
1G	ple-	4A/	.	.	.	4d\yy	.
!	!	!LO:TX:t=P:problem=kreska pseudotaktowa	!	!	!	!	!
.	.	4G/	.	.	.	4c\yy	.
=40	=40	=40	=40	=40	=40	=40	=40
.	.	1A	.	1Dyy	et	1dyy	.
!LO:TX:t=P:problem=kreska pseudotaktowa	!	!	!	!	!	!	!
2F\	.	.	.	.	.	.	.
!	!	!LO:TX:t=P:problem=kreska pseudotaktowa	!	!	!	!	!
2G\	-ni	1G	.	2E/yy	T(er)-	4G/yy	.
.	.	.	.	.	.	4A/yy	.
4GG/	ſunt	.	.	2.D/yy	.	4B-/yy	.
*	*	*	*	*	*	*custos:d	*
!LO:TX:t=P:problem=kreska pseudotaktowa	!	!	!	!	!	!	!
4AA/	.	.	.	.	.	4c/yy	.
!	!	!	!	!	!	!LO:LB:g=original	!
=41	=41	=41	=41	=41	=41	=41	=41
4BB-/	.	2r	.	.	.	2.d\yy	.
4C/	.	.	.	4E/yy	.	.	.
*	*	*	*ij	*	*	*	*
2.D/	.	4D/	ple-	4F/yy	.	.	.
!	!	!LO:TX:t=P:problem=kreska pseudotaktowa	!	!	!	!	!
.	.	4E/	.	4G/yy	.	4c\yy	.
.	.	4F/	-ni	2.A/yy	.	4A/yy	.
4C/	.	4G/	.	.	.	4B-/yy	.
4AA/	.	2.A/	ſunt	.	.	1cyy	.
*custos:C	*	*	*	*	*	*	*
!LO:TX:t=P:problem=kreska pseudotaktowa	!	!	!	!	!	!	!
4BB-/	.	.	.	4G/yy	.	.	.
!LO:LB:g=original	!	!	!	!	!	!	!
=42	=42	=42	=42	=42	=42	=42	=42
1C	coe-	.	.	4E/yy	.	.	.
.	.	4G/	.	4F/yy	.	.	.
.	.	4E/	.	4G/yy	.	2G/yy	.
!	!	!LO:TX:t=P:problem=kreska pseudotaktowa	!	!	!	!	!
.	.	4F/	.	4A/yy	.	.	.
2GG/	-li	1G	c(ae)-	2.B-/yy	.	1dyy	-li
*	*Xij	*	*	*	*	*	*Xij
1G	et	.	.	.	.	.	.
.	.	.	.	8A/Lyy	.	.	.
.	.	.	.	8G/Jyy	.	.	.
=43	=43	=43	=43	=43	=43	=43	=43
!	!	!LO:TX:t=P:problem=kreska pseudotaktowa	!	!	!	!	!
.	.	1D	-li	2B-/yy	-ra	2ryy	.
!LO:TX:t=P:problem=kreska pseudotaktowa	!	!	!	!	!	!	!
*	*	*	*Xij	*	*Xij	*	*
2F\	ter-	.	.	2A/yy	.	1dyy	(et)
2G\	-ra	2r	.	1Gyy	et	.	.
2E\	.	1G	et	.	.	2c\yy	.
=44	=44	=44	=44	=44	=44	=44	=44
!LO:TX:t=P:problem=kreska pseudotaktowa	!	!	!	!	!	!	!
1D	.	.	.	1Ayy	T(er)-	1dyy	ter-
*	*	*custos:G	*	*	*	*	*
!	!	!LO:TX:t=P:problem=kreska pseudotaktowa	!	!	!	!	!
.	.	2F/	ter-	.	.	.	.
!	!	!LO:LB:g=original	!	!	!	!	!
2r	.	2G/	-ra	0Gyy	-ra	2B-/yy	-ra
!	!	!LO:TX:t=P:problem=kreska pseudotaktowa	!	!	!	!	!
*	*ij	*	*	*	*	*	*ij
1C	et	2E/	.	.	.	2G/yy	.
=45	=45	=45	=45	=45	=45	=45	=45
.	.	2D/	.	.	.	1dyy	(et)
!LO:TX:t=P:problem=kreska pseudotaktowa	!	!	!	!	!	!	!
2BB-/	.	2.G/	.	.	.	.	.
2C/	ter-	.	.	2ryy	.	2G/yy	ter-
.	.	4F/	.	.	.	.	.
2AA/	.	1F	.	2C/yy	et	2A/yy	.
=46	=46	=46	=46	=46	=46	=46	=46
!LO:TX:t=P:problem=kreska pseudotaktowa	!	!	!	!	!	!	!
1GG	-ra	.	.	1Gyy	ter-	1B-yy	-ra
*	*	*	*	*	*	*	*Xij
!	!	!LO:TX:t=P:problem=kreska pseudotaktowa	!	!	!	!	!
.	.	2E/	.	.	.	.	.
!	!	!LO:TX:t=P:problem=kreska pseudotaktowa	!	!	!	!	!
2r	.	0F	.	2F/yy	.	1Ayy	.
2FF/	et	.	.	2C/yy	.	.	.
=47	=47	=47	=47	=47	=47	=47	=47
1BB-	ter-	.	.	1Dyy	.	2ryy	.
.	.	.	.	.	.	2F/yy	et
2AA/	.	2r	.	2C/yy	-ra	1cyy	ter-
!LO:TX:t=P:problem=kreska pseudotaktowa	!	!	!	!	!	!	!
*	*	*	*ij	*	*ij	*	*
2FF/	.	2F/	ple-	1Fyy	et	.	.
=48	=48	=48	=48	=48	=48	=48	=48
!	!	!LO:TX:t=P:problem=kreska pseudotaktowa	!	!	!	!	!
1GG	.	1B-	.	.	.	2B-/yy	.
.	.	.	.	2E/yy	ter-	2G/yy	.
2FF/	-ra	2A/	-ni	4F/yy	.	1Ayy	.
.	.	.	.	4G/yy	.	.	.
!LO:TX:t=P:problem=kreska pseudotaktowa	!	!	!	!	!	!	!
2F\	ple-	2F/	.	4A/yy	.	.	.
.	.	.	.	4B-\yy	.	.	.
=49	=49	=49	=49	=49	=49	=49	=49
*custos:C	*	*	*	*	*	*	*
!	!	!LO:TX:t=P:problem=kreska pseudotaktowa	!	!	!	!	!
2E\	.	1G	ſunt	4c\yy	.	2G/yy	-ra
.	.	.	.	4G/yy	.	.	.
!LO:TX:t=P:problem=kreska pseudotaktowa	!	!	!	!	!	!	!
*	*	*	*	*	*	*	*ij
!LO:LB:g=original	!	!	!	!	!	!	!
2C/	-ni	.	.	1cyy	.	2c\yy	et
1D	ſunt	2.F/	c(ae)-	.	.	1fyy	ter-
*	*	*	*	*custos:c	*	*	*
.	.	.	.	2B-/yy	.	.	.
!	!	!LO:TX:t=P:problem=kreska pseudotaktowa	!	!	!	!	!
.	.	4G/	.	.	.	.	.
!	!	!	!	!LO:LB:g=original	!	!	!
=50	=50	=50	=50	=50	=50	=50	=50
2.C/	coe-	4A\	-li	2c\yy	.	1.eyy	.
*	*	*custos:c	*	*	*	*	*
.	.	4B-\	.	.	.	.	.
!	!	!LO:LB:g=original	!	!	!	!	!
.	.	2.c\	et	2G/yy	.	.	.
!LO:TX:t=P:problem=kreska pseudotaktowa	!	!	!	!	!	!	!
4D/	.	.	.	.	.	.	.
4E/	.	.	.	1Gyy	-ra	.	.
*	*	*	*	*	*Xij	*	*
4F/	.	4B-\	.	.	.	.	.
2.G\	.	4G/	.	.	.	4d\yy	.
!	!	!LO:TX:t=P:problem=kreska pseudotaktowa	!	!	!	!	!
.	.	4A/	.	.	.	4c\yy	.
=51	=51	=51	=51	=51	=51	=51	=51
.	.	1B-	ter-	0ryy	.	1dyy	.
4F\	.	.	.	.	.	.	.
4D/	.	.	.	.	.	.	.
!LO:TX:t=P:problem=kreska pseudotaktowa	!	!	!	!	!	!	!
4E/	.	.	.	.	.	.	.
1F	-li	2A/	-ra	.	.	0cyy	-ra
*	*	*	*	*	*	*	*Xij
!	!	!LO:TX:t=P:problem=kreska pseudotaktowa	!	!	!	!	!
.	.	2F/	et	.	.	.	.
=52	=52	=52	=52	=52	=52	=52	=52
*	*	*	*	*	*	*custos:F	*
2E/	et	2G/	.	2ryy	.	.	.
2C/	.	1c	ter-	2C/yy	gl(o-	.	.
1D	ter-	.	.	2F/yy	-ri)-	2ryy	.
.	.	2B-\	.	2F/yy	-a	2F/yy	gl(o-
=53	=53	=53	=53	=53	=53	=53	=53
!LO:TX:t=P:problem=kreska pseudotaktowa	!	!LO:TX:t=P:problem=kreska pseudotaktowa	!	!	!	!	!
0.C	-ra	1c	-ra	2.G/yy	tu-	2c\yy	-ri)-
*	*Xij	*	*	*	*	*	*
.	.	.	.	.	.	2c\yy	-a
.	.	.	.	4F/yy	.	.	.
.	.	2r	.	4D/yy	.	2d\yy	tu-
.	.	.	.	4E/yy	.	.	.
.	.	2C/	c(ae)-	1Fyy	.	2c\yy	-a
=54	=54	=54	=54	=54	=54	=54	=54
.	.	2G/	-li	.	.	1ryy	.
!	!	!LO:TX:t=P:problem=kreska pseudotaktowa	!	!	!	!	!
.	.	2G/	et	2E/yy	.	.	.
2r	.	1A	ter-	2D/yy	.	1ryy	.
2FF/	glo-	.	.	1Fyy	.	.	.
=55	=55	=55	=55	=55	=55	=55	=55
!	!	!LO:TX:t=P:problem=kreska pseudotaktowa	!	!	!	!	!
2C/	-ri-	1G	-ra	.	.	2ryy	.
*	*	*	*Xij	*	*	*	*ij
!LO:TX:t=P:problem=kreska pseudotaktowa	!	!	!	!	!	!	!
2C/	-a	.	.	2E/yy	.	2c\yy	gl(o-
*custos:C	*	*	*	*	*	*	*
1D	tu-	2r	.	1Fyy	-a	2f\yy	-ri)-
!	!	!	!	!	!	!	!
!	!	!LO:TX:t=P:problem=kreska pseudotaktowa	!	!	!	!	!
.	.	2F/	glo-	.	.	2f\yy	-a
!LO:LB:g=original	!	!	!	!	!	!	!
=56	=56	=56	=56	=56	=56	=56	=56
*	*	*custos:c	*	*	*	*	*
!LO:TX:t=P:problem=kreska pseudotaktowa	!	!	!	!	!	!	!
1C	-a	2c\	-ri-	2ryy	.	2e\yy	.
!	!	!LO:TX:t=P:problem=kreska pseudotaktowa	!	!	!	!	!
!	!	!LO:LB:g=original	!	!	!	!	!
.	.	2c\	-a	2C/yy	gl(o-	1cyy	tu-
2r	.	1d	tu-	2G/yy	-ri)-	.	.
2GG/	glo-	.	.	1Gyy	-a	2B-/yy	.
=57	=57	=57	=57	=57	=57	=57	=57
2C/	-ri-	2c\	-a	.	.	1cyy	-a
!LO:TX:t=P:problem=kreska pseudotaktowa	!	!LO:TX:t=P:problem=kreska pseudotaktowa	!	!	!	!	!
2C/	-a	2C/	glo-	2.A/yy	tu-	.	.
1D	tu-	2F/	-ri-	.	.	2ryy	.
.	.	.	.	4G/yy	.	.	.
!	!	!LO:TX:t=P:problem=kreska pseudotaktowa	!	!	!	!	!
.	.	2F/	-a	1Fyy	.	2F/yy	gl(o-
=58	=58	=58	=58	=58	=58	=58	=58
2.C/	-a	1G	tu-	.	.	2c\yy	-ri)-
.	.	.	.	2E/yy	.	1cyy	-a
!LO:TX:t=P:problem=kreska pseudotaktowa	!	!	!	!	!	!	!
4BB-/	.	.	.	.	.	.	.
2AA/	.	2F/	-a	0Fyy	-a	.	.
*	*	*	*ij	*	*	*	*
1BB-	.	4D/	glo-	.	.	1dyy	tu-
!	!	!LO:TX:t=P:problem=kreska pseudotaktowa	!	!	!	!	!
.	.	4E/	.	.	.	.	.
=59	=59	=59	=59	=59	=59	=59	=59
.	.	4F/	-ri-	.	.	.	.
.	.	4G/	.	.	.	.	.
4AA/	.	1A	-a	.	.	4c/yy	.
!LO:TX:t=P:problem=kreska pseudotaktowa	!	!	!	!	!	!	!
4GG/	.	.	.	.	.	4B-/yy	.
2FF/	.	.	.	2ryy	.	2A/yy	.
2GG/	.	4G/	.	2D/yy	gl(o-	2B-\yy	.
!	!	!LO:TX:t=P:problem=kreska pseudotaktowa	!	!	!	!	!
.	.	4F/	.	.	.	.	.
=60	=60	=60	=60	=60	=60	=60	=60
2AA/	.	4E/	.	2C/yy	-ri)-	2c\yy	.
.	.	4C/	.	.	.	.	.
!LO:TX:t=P:problem=kreska pseudotaktowa	!	!	!	!	!	!	!
2BB-/	.	1F	tu-	2F/yy	-a	2d\yy	.
1GG	.	.	.	1Gyy	tu-	1B-yy	.
.	.	2E/	.	.	.	.	.
=61	=61	=61	=61	=61	=61	=61	=61
*custos:BB-	*	*	*	*	*	*	*
!LO:N:vis=00	!	!LO:N:vis=00	!	!	!	!	!
0FF	.	0F	-a	0Cyy	-a	0Ayy	-a
*	*	*	*Xij	*	*Xij	*	*Xij
!LO:LB:g=original	!	!	!	!	!	!	!
=62||	=62||	=62||	=62||	=62||	=62||	=62||	=62||
*M2/1	*	*M2/1	*	*M2/1	*	*M2/1	*
*met(c|)	*	*met(c|)	*	*met(c|)	*	*met(c|)	*
1.BB-	O-	0B-	O-	0d	O-	0F	O-
!LO:TX:t=P:problem=kreska pseudotaktowa	!	!	!	!	!	!	!
2C/	-ſan-	.	.	.	.	.	.
=63	=63	=63	=63	=63	=63	=63	=63
*	*	*	*	*	*	*lig	*
2D/	-na	2A/	-ſan-	1.d	-ſan-	1F	-ſan-
!	!	!LO:TX:t=P:problem=kreska pseudotaktowa	!	!	!	!	!
1BB-	.	2B-/	.	.	.	.	.
.	.	1G	-na	.	.	1B-	.
4AA/	.	.	.	2e\	-na	.	.
4GG/	.	.	.	.	.	.	.
!	!	!	!	!LO:TX:t=P:problem=kreska pseudotaktowa	!	!	!
*	*	*	*	*	*	*Xlig	*
=64	=64	=64	=64	=64	=64	=64	=64
0D	.	0F	.	1.f	.	1.A	-na
!	!	!	!	!	!	!LO:TX:t=P:problem=kreska pseudotaktowa	!
.	.	.	.	2.d\	in	2F/	.
=65	=65	=65	=65	=65	=65	=65	=65
!LO:TX:t=P:problem=kreska pseudotaktowa	!	!LO:TX:t=P:problem=kreska pseudotaktowa	!	!	!	!	!
1GG	.	1B-	.	.	.	1G	.
.	.	.	.	4c\	ex-	.	.
.	.	.	.	4d\	-cel-	.	.
!	!	!	!	!LO:TX:t=P:problem=kreska pseudotaktowa	!	!	!
.	.	.	.	4e\	-ſis	.	.
1r	.	2A/	.	2.f\	.	2.F/	in
.	.	1F	.	.	.	.	.
!	!	!	!	!	!	!LO:TX:t=P:problem=kreska pseudotaktowa	!
.	.	.	.	8e\L	.	4G/	ex-
.	.	.	.	8d\J	.	.	.
=66	=66	=66	=66	=66	=66	=66	=66
!	!	!	!	!LO:TX:t=P:problem=kreska pseudotaktowa	!	!	!
2r	.	.	.	1c	.	2A/	-cel-
!LO:TX:t=P:problem=kreska pseudotaktowa	!	!	!	!	!	!LO:TX:t=P:problem=poprawka wysokości	!
*	*ij	*	*	*	*ij	*	*
2C/	o-	4E/	.	.	.	2G/	-ſis
!	!	!LO:TX:t=P:problem=kreska pseudotaktowa	!	!	!	!	!
.	.	4D/	.	.	.	.	.
2AA/	.	2E/	.	2r	.	4A/	.
.	.	.	.	.	.	4B-/	.
!	!	!	!	!LO:TX:t=P:problem=kreska pseudotaktowa	!	!	!
2FF/	.	2F/	.	2A/	o-	1c	.
=67	=67	=67	=67	=67	=67	=67	=67
*	*	*	*	*custos:B-	*	*	*
!	!	!LO:TX:t=P:problem=kreska pseudotaktowa	!	!	!	!	!
1GG	-ſan-	1D	.	2G/	.	.	.
!	!	!	!	!LO:TX:t=P:problem=kreska pseudotaktowa	!	!	!
!	!	!	!	!LO:LB:g=original	!	!	!
.	.	.	.	2B-/	-ſan-	2B-\	.
*	*	*	*	*	*	*custos:d	*
!LO:TX:t=P:problem=kreska pseudotaktowa	!	!	!	!	!	!LO:TX:t=P:problem=kreska pseudotaktowa	!
1C	-na	2r	.	4A/	-na	1c	.
*	*Xij	*	*ij	*	*	*	*ij
.	.	.	.	4G/	.	.	.
.	.	2C/	o-	1c	in	.	.
!	!	!	!	!	!	!LO:LB:g=original	!
=68	=68	=68	=68	=68	=68	=68	=68
!	!	!LO:TX:t=P:problem=kreska pseudotaktowa	!	!	!	!LO:TX:t=P:problem=kreska pseudotaktowa	!
2r	.	1G	-ſan-	.	.	1d	.
!	!	!	!	!LO:TX:t=P:problem=kreska pseudotaktowa	!	!	!
2GG/	o-	.	.	2B-\	.	.	.
!LO:TX:t=P:problem=kreska pseudotaktowa	!	!	!	!	!	!	!
1D	-ſan-	2F/	.	2A/	ex-	2r	.
.	.	2D/	.	2F/	.	2.A/	in
=69	=69	=69	=69	=69	=69	=69	=69
!	!	!LO:TX:t=P:problem=kreska pseudotaktowa	!	!	!	!	!
2C/	-na	1E	.	1c	-cel-	.	.
.	.	.	.	.	.	4B-/	ex-
!	!	!	!	!	!	!LO:TX:t=P:problem=kreska pseudotaktowa	!
2AA/	in	.	.	.	.	2c\	.
*custos:FF	*	*	*	*	*	*	*
*	*	*custos:F	*	*	*	*	*
!LO:TX:t=P:problem=kreska pseudotaktowa	!	!	!	!	!	!	!
1BB-	ex-	2D/	.	1d	.	1B-	.
!	!	!LO:LB:g=original	!	!	!	!	!
.	.	2.F/	.	.	.	.	.
!LO:LB:g=original	!	!	!	!	!	!	!
=70	=70	=70	=70	=70	=70	=70	=70
!	!	!	!	!LO:TX:t=P:problem=kreska pseudotaktowa	!	!	!
0FF	-cel-	.	.	1c	-ſis	2A/	.
.	.	4G/	.	.	.	.	.
.	.	4A\	.	.	.	2.c\	-cel-
!	!	!LO:TX:t=P:problem=kreska pseudotaktowa	!	!	!	!	!
.	.	4B-\	.	.	.	.	.
.	.	2c\	-na	2r	.	.	.
.	.	.	.	.	.	4B-\	.
!	!	!	!	!LO:TX:t=P:problem=kreska pseudotaktowa	!	!	!
.	.	2C/	o-	2c\	in	4A/	.
!	!	!	!	!	!	!LO:TX:t=P:problem=kreska pseudotaktowa	!
.	.	.	.	.	.	4G/	.
=71	=71	=71	=71	=71	=71	=71	=71
1.BB-	-ſis	2.D/	-ſan-	2B-\	ex-	1F	-ſis
.	.	.	.	1d	-cel-	.	.
!	!	!LO:TX:t=P:problem=kreska pseudotaktowa	!	!	!	!	!
.	.	4C/	.	.	.	.	.
.	.	4D/	.	.	.	2r	.
.	.	4E/	.	.	.	.	.
!	!	!	!	!LO:TX:t=P:problem=kreska pseudotaktowa	!	!LO:TX:t=P:problem=kreska pseudotaktowa	!
2AA/	.	1F	.	2c\	.	2F/	in
=72	=72	=72	=72	=72	=72	=72	=72
!LO:TX:t=P:problem=kreska pseudotaktowa	!	!	!	!	!	!	!
1GG	.	.	.	1B-	.	1G	ex-
!	!	!LO:TX:t=P:problem=kreska pseudotaktowa	!	!	!	!	!
.	.	2E/	.	.	.	.	.
!	!	!	!	!LO:TX:t=P:problem=kreska pseudotaktowa	!	!	!
2r	.	2.F/	.	1A	-ſis	2.A/	-cel-
*	*ij	*	*	*	*Xij	*	*
2.FF/	in	.	.	.	.	.	.
!	!	!	!	!	!	!LO:TX:t=P:problem=kreska pseudotaktowa	!
.	.	8E/L	.	.	.	4G/	.
.	.	8D/J	.	.	.	.	.
=73	=73	=73	=73	=73	=73	=73	=73
!	!	!LO:TX:t=P:problem=kreska pseudotaktowa	!	!	!	!	!
.	.	1C	-na	2r	.	4A\	.
4GG/	.	.	.	.	.	4B-\	.
!LO:TX:t=P:problem=kreska pseudotaktowa	!	!	!	!	!	!	!
2AA/	ex-	.	.	2F/	o-	1c	.
*	*	*	*	*custos:A	*	*	*
!	!	!	!	!LO:TX:t=P:problem=kreska pseudotaktowa	!	!	!
1GG	-cel-	1r	.	1G	-ſanna	.	.
*	*	*	*	*	*	*custos:c	*
!	!	!	!	!	!	!LO:TX:t=P:problem=kreska pseudotaktowa	!
.	.	.	.	.	.	2B-\	.
!	!	!	!	!LO:LB:g=original	!	!LO:LB:g=original	!
=74	=74	=74	=74	=74	=74	=74	=74
!LO:TX:t=P:problem=kreska pseudotaktowa	!	!	!	!	!	!	!
0FF	-ſis	2r	.	2.A/	in	2c\	.
.	.	1c	o-	.	.	2.F/	-ſis
!	!	!	!	!LO:TX:t=P:problem=kreska pseudotaktowa	!	!	!
.	.	.	.	4G/	ex-	.	.
.	.	.	.	4A/	-cel-	.	.
.	.	.	.	4B-/	-ſis;	4G/	.
!	!	!LO:TX:t=P:problem=kreska pseudotaktowa	!	!	!	!	!
.	.	2c\	-ſan-	1c	.	2A/	.
=75	=75	=75	=75	=75	=75	=75	=75
!	!	!	!	!	!	!LO:TX:t=P:problem=kreska pseudotaktowa	!
1r	.	1d	.	.	.	1G	.
!	!	!	!	!LO:TX:t=P:problem=kreska pseudotaktowa	!	!	!
.	.	.	.	2B-/	.	.	.
*	*	*custos:A	*	*	*	*	*
2r	.	2c\	.	1c	.	1r	.
!	!	!LO:TX:t=P:problem=kreska pseudotaktowa	!	!	!	!	!
!	!	!LO:LB:g=original	!	!	!	!	!
1F	in	2A/	.	.	.	.	.
=76	=76	=76	=76	=76	=76	=76	=76
.	.	1c	.	2F,/	.	1r	.
!LO:TX:t=P:problem=kreska pseudotaktowa	!	!	!	!LO:TX:t=P:problem=kreska pseudotaktowa	!	!	!
2F\	ex-	.	.	2f\	.	.	.
1G	-cel-	1B-	.	2d\	.	2r	.
!	!	!	!	!	!	!LO:TX:t=P:problem=kreska pseudotaktowa	!
.	.	.	.	2e\	.	2G/	in
=77	=77	=77	=77	=77	=77	=77	=77
!	!	!LO:TX:t=P:problem=kreska pseudotaktowa	!	!LO:TX:t=P:problem=kreska pseudotaktowa	!	!	!
2F\	.	1A	-na	1f	.	2c\	.
!LO:TX:t=P:problem=kreska pseudotaktowa	!	!	!	!	!	!	!
2D/	.	.	.	.	.	2d\	ex-
1F	.	2r	.	2r	.	2.c\	-cel-
*	*	*	*	*	*ij	*	*
.	.	2F/	o-	1c	o-	.	.
.	.	.	.	.	.	8B-/L	.
.	.	.	.	.	.	8A/J	.
=78	=78	=78	=78	=78	=78	=78	=78
!	!	!	!	!	!	!LO:TX:t=P:problem=kreska pseudotaktowa	!
2E\	.	2.c\	-ſan-	.	.	2G/	.
!LO:TX:t=P:problem=kreska pseudotaktowa	!	!	!	!LO:TX:t=P:problem=kreska pseudotaktowa	!	!	!
2C/	.	.	.	2c\	-ſan-	1c	.
!	!	!LO:TX:t=P:problem=kreska pseudotaktowa	!	!	!	!	!
.	.	4B-\	.	.	.	.	.
*custos:C	*	*	*	*	*	*	*
!LO:TX:t=P:problem=kreska pseudotaktowa	!	!	!	!	!	!	!
1D	.	2A/	.	1f	-na	.	.
.	.	2F/	.	.	.	2B-\	.
!LO:LB:g=original	!	!	!	!	!	!	!
=79	=79	=79	=79	=79	=79	=79	=79
!LO:TX:t=P:problem=kreska pseudotaktowa	!	!LO:TX:t=P:problem=kreska pseudotaktowa	!	!	!	!LO:TX:t=P:problem=kreska pseudotaktowa	!
1C	-ſis	1G	-na	2e\	.	1c	-ſis
*	*Xij	*	*	*	*	*	*
.	.	.	.	1c	in	.	.
2r	.	2r	.	.	.	2C/	ex-
1C	o-	1c	o-	4B-/	ex-	2.E/	-cel-
*	*	*	*	*custos:G	*	*	*
!	!	!	!	!LO:TX:t=P:problem=kreska pseudotaktowa	!	!	!
.	.	.	.	4A/	.	.	.
!	!	!	!	!LO:LB:g=original	!	!	!
=80	=80	=80	=80	=80	=80	=80	=80
.	.	.	.	2G/	.	.	.
.	.	.	.	.	.	4F/	.
!LO:TX:t=P:problem=kreska pseudotaktowa	!	!LO:TX:t=P:problem=kreska pseudotaktowa	!	!	!	!	!
2C/	-ſan-	2c\	-ſan-	1c	-cel-	4G/	.
*	*	*	*	*	*	*custos:F	*
.	.	.	.	.	.	4E/	.
!	!	!	!	!	!	!LO:TX:t=P:problem=kreska pseudotaktowa	!
!	!	!	!	!	!	!LO:LB:g=original	!
1D	-na	1f	.	.	.	1F	-ſis
.	.	.	.	2B-\	.	.	.
=81	=81	=81	=81	=81	=81	=81	=81
!	!	!	!	!LO:TX:t=P:problem=kreska pseudotaktowa	!	!	!
2C/	in	2e\	.	0c	-ſis	2r	.
!LO:TX:t=P:problem=kreska pseudotaktowa	!	!	!	!	!	!	!
2AA/	ex-	2.c\	.	.	.	1c	o-
1C	-cel-	.	.	.	.	.	.
.	.	4B-\	.	.	.	.	.
!	!	!	!	!	!	!LO:TX:t=P:problem=kreska pseudotaktowa	!
.	.	4G/	.	.	.	2c\	-ſan-
!	!	!LO:TX:t=P:problem=kreska pseudotaktowa	!	!	!	!	!
.	.	4A/	.	.	.	.	.
=82	=82	=82	=82	=82	=82	=82	=82
1BB-	-ſis	4B-\	.	2r	.	1d	-na
*	*	*custos:d	*	*	*	*	*
.	.	4c\	.	.	.	.	.
!	!	!LO:LB:g=original	!	!	!	!	!
.	.	4d\	.	4F/	in	.	.
!	!	!LO:TX:t=P:problem=kreska pseudotaktowa	!	!LO:TX:t=P:problem=kreska pseudotaktowa	!	!	!
.	.	4B-\	.	4G/	.	.	.
2AA/	.	2c\	-na	4A/	.	2c\	in
.	.	.	.	4B-/	.	.	.
!	!	!LO:TX:t=P:problem=kreska pseudotaktowa	!	!	!	!	!
2.FF/	.	2C/	o-	1c	ex-	2.A/	ex-
=83	=83	=83	=83	=83	=83	=83	=83
.	.	2.C/	-ſan-	.	.	.	.
4GG/	.	.	.	.	.	4G/	.
4AA/	.	.	.	4B-/	.	1c	-cel-
!LO:TX:t=P:problem=kreska pseudotaktowa	!	!	!	!LO:TX:t=P:problem=kreska pseudotaktowa	!	!	!
4BB-/	.	4D/	.	4A/	.	.	.
2C/	.	4E/	.	2G/	-cel-	.	.
.	.	4C/	.	.	.	.	.
!	!	!	!	!	!	!LO:TX:t=P:problem=kreska pseudotaktowa	!
2D/	.	1F	.	2F/	.	2B-\	.
=84	=84	=84	=84	=84	=84	=84	=84
!LO:TX:t=P:problem=kreska pseudotaktowa	!	!	!	!LO:TX:t=P:problem=kreska pseudotaktowa	!	!	!
1C	.	.	.	1G	-ſis	2c\	-ſis
!	!	!LO:TX:t=P:problem=kreska pseudotaktowa	!	!	!	!	!
.	.	2E/	.	.	.	2C/	o-
2r	.	1F	-na	2.F/	ex-	2D/	-ſan-
!	!	!	!	!	!	!LO:TX:t=P:problem=kreska pseudotaktowa	!
*	*ij	*	*	*	*	*	*
2FF/	in	.	.	.	.	2F/	-na
!	!	!	!	!LO:TX:t=P:problem=kreska pseudotaktowa	!	!	!
.	.	.	.	4G/	.	.	.
=85	=85	=85	=85	=85	=85	=85	=85
*custos:D	*	*	*	*	*	*	*
1C	ex-	2r	.	4A/	.	2E/	in
.	.	.	.	4B-/	.	.	.
!	!	!LO:TX:t=P:problem=kreska pseudotaktowa	!	!	!	!	!
.	.	2C/	o-	1c	-cel-	1A	ex-
*	*	*lig	*	*	*	*	*
!LO:LB:g=original	!	!	!	!	!	!	!
1D	.	1F	-ſan-	.	.	.	.
*	*	*	*	*custos:c	*	*	*
.	.	.	.	2B-\	.	4G/	.
!	!	!	!	!	!	!LO:TX:t=P:problem=kreska pseudotaktowa	!
.	.	.	.	.	.	4F/	.
!	!	!	!	!LO:LB:g=original	!	!	!
=86	=86	=86	=86	=86	=86	=86	=86
!LO:TX:t=P:problem=kreska pseudotaktowa	!	!	!	!LO:TX:t=P:problem=kreska pseudotaktowa	!	!	!
0C	.	1G	.	1c	-ſis	4E/	.
.	.	.	.	.	.	4C/	.
.	.	.	.	.	.	1F	-cel-
*	*	*Xlig	*	*	*Xij	*	*
!	!	!LO:TX:t=P:problem=kreska pseudotaktowa	!	!	!	!	!
.	.	1A	.	1r	.	.	.
*	*	*	*	*	*	*custos:F	*
!	!	!	!	!	!	!LO:TX:t=P:problem=kreska pseudotaktowa	!
.	.	.	.	.	.	2E/	.
!	!	!	!	!	!	!LO:LB:g=original	!
=87	=87	=87	=87	=87	=87	=87	=87
1.BB-	-cel-	0B-	.	0F	o-	1F	-ſis
.	.	.	.	.	.	2r	.
4AA/	.	.	.	.	.	4D/	in
!	!	!	!	!	!	!LO:TX:t=P:problem=kreska pseudotaktowa	!
4GG/	.	.	.	.	.	4E/	.
=88	=88	=88	=88	=88	=88	=88	=88
!LO:TX:t=P:problem=kreska pseudotaktowa	!	!LO:TX:t=P:problem=kreska pseudotaktowa	!	!LO:TX:t=P:problem=kreska pseudotaktowa	!	!	!
1FF	-ſis	1A	-na	1F	-ſan-	4F/	ex-
.	.	.	.	.	.	4G/	.
.	.	.	.	.	.	4A/	.
.	.	.	.	.	.	4F/	.
1r	.	1r	.	1B-	-na	1G	-cel-
=89	=89	=89	=89	=89	=89	=89	=89
!	!	!	!	!	!	!LO:TX:t=P:problem=kreska pseudotaktowa	!
2.F\	in	0F	o-	2.A/	in	1D	-ſis
!LO:TX:t=P:problem=kreska pseudotaktowa	!	!	!	!LO:TX:t=P:problem=kreska pseudotaktowa	!	!	!
4E\	ex-	.	.	4G/	ex-	.	.
2D/	-cel-	.	.	2F/	-cel-	2r	.
!	!	!	!	!LO:TX:t=P:problem=kreska pseudotaktowa	!	!	!
2C/	.	.	.	2E/	-ſis;	2A/	o-
=90	=90	=90	=90	=90	=90	=90	=90
*	*	*lig	*	*	*	*	*
2BB-/	.	1F	-ſan-	4D/	.	2B-\	-ſan-
.	.	.	.	4C/	.	.	.
!LO:TX:t=P:problem=kreska pseudotaktowa	!	!	!	!	!	!LO:TX:t=P:problem=kreska pseudotaktowa	!
2AA/	.	.	.	1F	.	2c\	-na
*	*	*custos:A	*	*	*	*	*
!	!	!LO:TX:t=P:problem=kreska pseudotaktowa	!	!	!	!	!
1GG	-ſis	1B-	.	.	.	2d\	in
.	.	.	.	2E/	.	2G/	ex-
!	!	!	!	!LO:TX:t=P:problem=kreska pseudotaktowa	!	!	!
!	!	!LO:LB:g=original	!	!	!	!	!
*	*Xij	*Xlig	*	*	*	*	*
=91	=91	=91	=91	=91	=91	=91	=91
!	!	!LO:TX:t=P:problem=kreska pseudotaktowa	!	!	!	!	!
0FF	o-	1A	-na	2.F/	.	2.c\	-cel-
!	!	!	!	!LO:TX:t=P:problem=kreska pseudotaktowa	!	!LO:TX:t=P:problem=kreska pseudotaktowa	!
.	.	.	.	4G/	.	4B-\	.
.	.	2r	.	4A/	.	2.A/	.
.	.	.	.	4B-/	.	.	.
.	.	2F/	o-	2.c\	.	.	.
.	.	.	.	.	.	4G/	.
=92	=92	=92	=92	=92	=92	=92	=92
1FF	-ſan-	1c	-ſan-	.	.	2F/	.
.	.	.	.	4B-\	.	.	.
*	*	*	*	*custos:G	*	*	*
.	.	.	.	1A	.	2E/	.
*	*	*	*	*	*	*custos:C	*
!	!	!LO:TX:t=P:problem=kreska pseudotaktowa	!	!	!	!LO:TX:t=P:problem=kreska pseudotaktowa	!
1BB-	-na	1d	.	.	.	1D	-ſis
!	!	!	!	!LO:LB:g=original	!	!	!
!	!	!	!	!LO:TX:t=P:problem=kreska pseudotaktowa	!	!	!
.	.	.	.	2G/	.	.	.
!	!	!	!	!	!	!LO:LB:g=original	!
=93	=93	=93	=93	=93	=93	=93	=93
!LO:TX:t=P:problem=kreska pseudotaktowa	!	!	!	!	!	!	!
1AA	.	2c\	.	1A	.	1r	.
.	.	4C/	.	.	.	.	.
!	!	!LO:TX:t=P:problem=kreska pseudotaktowa	!	!	!	!	!
.	.	4D/	.	.	.	.	.
2r	.	4E/	.	2G/	.	0C	ex-
.	.	4C/	.	.	.	.	.
2FF/	in	1F	.	1c	.	.	.
=94	=94	=94	=94	=94	=94	=94	=94
*custos:D	*	*	*	*	*	*	*
!LO:TX:t=P:problem=kreska pseudotaktowa	!	!	!	!	!	!	!
1C	ex-	.	.	.	.	.	.
!	!	!LO:TX:t=P:problem=kreska pseudotaktowa	!	!LO:TX:t=P:problem=kreska pseudotaktowa	!	!	!
.	.	2E/	-na	2c\	.	.	.
!LO:LB:g=original	!	!	!	!	!	!	!
*	*	*	*Xij	*	*	*	*
1D	-cel-	2.F/	in	2A/	.	1F	-cel-
.	.	.	.	2F/	.	.	.
.	.	4F/	ex-	.	.	.	.
=95	=95	=95	=95	=95	=95	=95	=95
!	!	!LO:TX:t=P:problem=kreska pseudotaktowa	!	!	!	!LO:TX:t=P:problem=kreska pseudotaktowa	!
2C/	.	0c	-cel-	2G/	.	1E	-ſis
!LO:TX:t=P:problem=kreska pseudotaktowa	!	!	!	!LO:TX:t=P:problem=kreska pseudotaktowa	!	!	!
2AA/	-ſis	.	.	2A/	.	.	.
!	!	!	!	!LO:TX:t=P:problem=kreska pseudotaktowa	!	!	!
1C	.	.	.	1G	.	2r	.
.	.	.	.	.	.	2C/	o-
=96	=96	=96	=96	=96	=96	=96	=96
*	*	*	*	*	*ij	*lig	*
1BB-	.	1d	-ſis;	2r	.	1G	-ſan-
!	!	!	!	!LO:TX:t=P:problem=kreska pseudotaktowa	!	!	!
.	.	.	.	2D/	o-	.	.
!	!	!LO:TX:t=P:problem=kreska pseudotaktowa	!	!	!	!	!
2AA/	.	0c	.	2E/	-ſan-	1A	.
2FF/	.	.	.	2F/	.	.	.
!	!	!	!	!LO:TX:t=P:problem=kreska pseudotaktowa	!	!	!
*	*	*	*	*	*	*Xlig	*
=97	=97	=97	=97	=97	=97	=97	=97
!LO:TX:t=P:problem=kreska pseudotaktowa	!	!	!	!	!	!	!
0C	.	.	.	2E/	-na	2G/	.
!	!	!	!	!	!	!LO:TX:t=P:problem=kreska pseudotaktowa	!
.	.	.	.	2C/	in	2E/	.
.	.	2r	.	1.c	ex-	1G	.
*	*ij	*	*ij	*	*Xij	*	*
*	*	*custos:c	*	*	*	*	*
!	!	!LO:TX:t=P:problem=kreska pseudotaktowa	!	!	!	!	!
.	.	2G/	o-	.	.	.	.
!	!	!LO:LB:g=original	!	!	!	!	!
=98	=98	=98	=98	=98	=98	=98	=98
2r	.	1.c	-ſan-	.	.	1F	.
2FF/	in	.	.	4B-\	.	.	.
!	!	!	!	!LO:TX:t=P:problem=kreska pseudotaktowa	!	!	!
.	.	.	.	4A\	.	.	.
*lig	*	*	*	*	*	*	*
*	*	*	*	*custos:A	*	*	*
1C	ex-	.	.	2G/	.	2E/	.
!	!	!	!	!LO:LB:g=original	!	!	!
*	*	*	*	*clefC3	*	*	*
!	!	!LO:TX:t=P:problem=kreska pseudotaktowa	!	!LO:TX:t=P:problem=kreska pseudotaktowa	!	!LO:TX:t=P:problem=kreska pseudotaktowa	!
.	.	2c\	-na	2.A/	-cel-	2C/	-na
*	*	*	*Xij	*	*	*	*Xij
=99	=99	=99	=99	=99	=99	=99	=99
*	*	*	*	*	*	*lig	*
1D	.	2A/	.	.	-ſis	1F	in
.	.	.	.	4G/	.	.	.
.	.	2B-/	.	1F	.	.	.
*Xlig	*	*	*	*	*	*	*
1C	-cel-	1c	.	.	.	1G	.
.	.	.	.	2E/	.	.	.
*	*	*	*	*	*	*Xlig	*
=100	=100	=100	=100	=100	=100	=100	=100
00FF	-ſis	00A	.	00F;	.	2A/	ex-
*	*Xij	*	*	*	*	*	*
.	.	.	.	.	.	1F	-cel-
.	.	.	.	.	.	4E/	.
.	.	.	.	.	.	4D/	-ſis
=101	=101	=101	=101	=101	=101	=101	=101
!	!	!	!	!	!	!LO:TX:a:t=Benedictus,\ntacet&colon;	!
!	!	!	!	!	!	!LO:N:vis=00	!
.	.	.	.	.	.	0C	.
=102||	=102||	=102||	=102||	=102||	=102||	=102||	=102||
0r	.	0F	Be-	0r	.	0ryy	.
=103	=103	=103	=103	=103	=103	=103	=103
!LO:TX:t=P:problem=kreska pseudotaktowa	!	!LO:TX:t=P:problem=kreska pseudotaktowa	!	!	!	!	!
1r	.	1G	-ne-	0r	.	0ryy	.
0FF	Be-	1A	-dic-	.	.	.	.
=104	=104	=104	=104	=104	=104	=104	=104
!	!	!LO:TX:t=P:problem=kreska pseudotaktowa	!	!	!	!	!
.	.	1F	-tus;	0r	.	0ryy	.
1GG	-ne-	1B-	.	.	.	.	.
=105	=105	=105	=105	=105	=105	=105	=105
*custos:FF	*	*	*	*	*	*	*
!	!	!	!	!LO:TX:t=P:problem=kreska pseudotaktowa	!	!	!
1AA	-di-	2.A/	.	0c	Be-	0ryy	.
!	!	!LO:TX:t=P:problem=kreska pseudotaktowa	!	!	!	!	!
.	.	4B-\	.	.	.	.	.
!LO:LB:g=original	!	!	!	!	!	!	!
1FF	-ctus	2c\	.	.	.	.	.
*	*	*custos:B-	*	*	*	*	*
!	!	!LO:TX:t=P:problem=kreska pseudotaktowa	!	!	!	!	!
.	.	2A/	.	.	.	.	.
!	!	!LO:LB:g=original	!	!	!	!	!
=106	=106	=106	=106	=106	=106	=106	=106
!LO:TX:t=P:problem=kreska pseudotaktowa	!	!	!	!LO:TX:t=P:problem=kreska pseudotaktowa	!	!	!
1BB-	.	1B-	.	1d	-ne-	0ryy	.
2.AA/	.	2.c\	.	1e	-dic-	.	.
4BB-/	.	8B-\L	.	.	.	.	.
!	!	!LO:TX:t=P:problem=kreska pseudotaktowa	!	!	!	!	!
.	.	8A\J	.	.	.	.	.
=107	=107	=107	=107	=107	=107	=107	=107
!	!	!	!	!LO:TX:t=P:problem=kreska pseudotaktowa	!	!	!
2C/	.	2G/	.	1c	-tus	0ryy	.
2AA/	.	2A/	.	.	.	.	.
!LO:TX:t=P:problem=kreska pseudotaktowa	!	!LO:TX:t=P:problem=kreska pseudotaktowa	!	!	!	!	!
1BB-	.	1F	.	1f	.	.	.
=108	=108	=108	=108	=108	=108	=108	=108
2.C/	.	2r	.	2.e\	qui	0ryy	.
.	.	2c\	qui	.	.	.	.
!	!	!	!	!LO:TX:t=P:problem=kreska pseudotaktowa	!	!	!
8BB-/L	.	.	.	4f\	ve-	.	.
8AA/J	.	.	.	.	.	.	.
2GG/	.	2B-\	.	2g\	-nit;	.	.
!	!	!LO:TX:t=P:problem=kreska pseudotaktowa	!	!	!	!	!
1AA	.	2.c\	ve-	2e\	.	.	.
=109	=109	=109	=109	=109	=109	=109	=109
!	!	!	!	!LO:TX:t=P:problem=kreska pseudotaktowa	!	!	!
.	.	.	.	1f	.	0ryy	.
.	.	4B-\	-nit	.	.	.	.
!	!	!LO:TX:t=P:problem=kreska pseudotaktowa	!	!	!	!	!
2FF/	.	2A/	.	.	.	.	.
!LO:TX:t=P:problem=kreska pseudotaktowa	!	!	!	!	!	!	!
1C	.	2.G/	.	2.g\	.	.	.
!	!	!LO:TX:t=P:problem=kreska pseudotaktowa	!	!LO:TX:t=P:problem=kreska pseudotaktowa	!	!	!
.	.	4A/	.	4f\	.	.	.
=110	=110	=110	=110	=110	=110	=110	=110
0r	.	4B-\	.	4d/	.	0ryy	.
*	*	*	*	*custos:f	*	*	*
.	.	4c\	.	4e/	.	.	.
!	!	!	!	!LO:LB:g=original	!	!	!
*	*	*	*	*clefC4	*	*	*
.	.	2.d\	.	2.f\	.	.	.
.	.	4c\	.	4e\	.	.	.
*	*	*custos:B-	*	*	*	*	*
.	.	1c	.	4d\	.	.	.
!	!	!	!	!LO:TX:t=P:problem=kreska pseudotaktowa	!	!	!
.	.	.	.	4c\	.	.	.
!	!	!LO:LB:g=original	!	!	!	!	!
=111	=111	=111	=111	=111	=111	=111	=111
2r	.	.	.	1d	.	0ryy	.
!LO:TX:t=P:problem=kreska pseudotaktowa	!	!LO:TX:t=P:problem=kreska pseudotaktowa	!	!	!	!	!
2GG/	qui	2B-\	.	.	.	.	.
!	!	!LO:TX:t=P:problem=kreska pseudotaktowa	!	!	!	!	!
2AA/	.	1c	.	2c\	.	.	.
!	!	!	!	!LO:TX:t=P:problem=kreska pseudotaktowa	!	!	!
2FF/	ve-	.	.	2A/	.	.	.
=112	=112	=112	=112	=112	=112	=112	=112
*custos:D	*	*	*	*	*	*	*
!LO:TX:t=P:problem=kreska pseudotaktowa	!	!	!	!	!	!	!
1GG	-nit	2r	.	1G	.	0ryy	.
!	!	!LO:TX:t=P:problem=kreska pseudotaktowa	!	!	!	!	!
.	.	2G/	in	.	.	.	.
!LO:LB:g=original	!	!	!	!LO:TX:t=P:problem=kreska pseudotaktowa	!	!	!
2r	.	2A/	no-	1F	.	.	.
!LO:TX:t=P:problem=kreska pseudotaktowa	!	!	!	!	!	!	!
*	*ij	*	*	*	*ij	*	*
2D/	qui	2F/	-mi-	.	.	.	.
=113	=113	=113	=113	=113	=113	=113	=113
!	!	!LO:TX:t=P:problem=kreska pseudotaktowa	!	!	!	!	!
2E/	ve-	1G	-ne	2r	.	0ryy	.
2C/	.	.	.	2c\	Be-	.	.
!LO:TX:t=P:problem=kreska pseudotaktowa	!	!	!	!	!	!	!
1D	-nit	2r	.	2A/	-ne-	.	.
!	!	!	!	!LO:TX:t=P:problem=kreska pseudotaktowa	!	!	!
*	*	*	*ij	*	*	*	*
.	.	2D/	in	2F/	-dic-	.	.
=114	=114	=114	=114	=114	=114	=114	=114
0r	.	2E/	no-	2.G/	-tus	0ryy	.
!	!	!LO:TX:t=P:problem=kreska pseudotaktowa	!	!	!	!	!
.	.	2C/	-mi-	.	.	.	.
.	.	.	.	4A/	.	.	.
.	.	2D/	-ne	2B-/	.	.	.
*	*	*	*Xij	*	*	*	*
!	!	!	!	!LO:TX:t=P:problem=kreska pseudotaktowa	!	!	!
.	.	2.F/	do-	2.A/	qui	.	.
=115	=115	=115	=115	=115	=115	=115	=115
!LO:TX:t=P:problem=kreska pseudotaktowa	!	!	!	!	!	!	!
1r	.	.	.	.	.	0ryy	.
.	.	4E/	.	4G/	.	.	.
.	.	4D/	.	1c	ve-	.	.
!	!	!LO:TX:t=P:problem=kreska pseudotaktowa	!	!	!	!	!
.	.	4C/	.	.	.	.	.
2r	.	1D	.	.	.	.	.
*	*ij	*	*	*	*	*	*
2GG/	be-	.	.	2B-\	.	.	.
=116	=116	=116	=116	=116	=116	=116	=116
*	*	*	*	*custos:c	*	*	*
!	!	!	!	!LO:TX:t=P:problem=kreska pseudotaktowa	!	!	!
2AA/	-ne-	2.C/	.	1c	-nit	0ryy	.
!LO:TX:t=P:problem=kreska pseudotaktowa	!	!	!	!	!	!	!
2FF/	-dic-	.	.	.	.	.	.
!	!	!LO:TX:t=P:problem=kreska pseudotaktowa	!	!	!	!	!
.	.	4D/	.	.	.	.	.
*	*	*custos:D	*	*	*	*	*
!	!	!	!	!LO:LB:g=original	!	!	!
2GG/	-tus	2E/	.	1r	.	.	.
!	!	!LO:LB:g=original	!	!	!	!	!
2.BB-/	qui	2.D/	.	.	.	.	.
=117	=117	=117	=117	=117	=117	=117	=117
.	.	.	.	2r	.	0ryy	.
4AA/	.	4C/	.	.	.	.	.
!	!	!	!	!LO:TX:t=P:problem=kreska pseudotaktowa	!	!	!
4GG/	.	1F	-mi-	2c\	Be-	.	.
4FF/	.	.	.	.	.	.	.
1GG	ve-	.	.	2B-/	-ne-	.	.
.	.	2E/	-ni	2G/	-dic-	.	.
=118	=118	=118	=118	=118	=118	=118	=118
!LO:TX:t=P:problem=kreska pseudotaktowa	!	!LO:TX:t=P:problem=kreska pseudotaktowa	!	!LO:TX:t=P:problem=kreska pseudotaktowa	!	!	!
1FF	.	1F	.	1A	-tus	0ryy	.
!LO:TX:t=P:problem=kreska pseudotaktowa	!	!	!	!	!	!	!
1C	-nit	2r	.	2.G/	qui	.	.
*	*Xij	*	*ij	*	*	*	*
.	.	2G/	in	.	.	.	.
.	.	.	.	8F/L	.	.	.
.	.	.	.	8E/J	.	.	.
=119	=119	=119	=119	=119	=119	=119	=119
!	!	!	!	!LO:TX:t=P:problem=kreska pseudotaktowa	!	!	!
1r	.	2F/	no-	4D/	ve-	0ryy	.
.	.	.	.	4C/	.	.	.
!	!	!LO:TX:t=P:problem=kreska pseudotaktowa	!	!	!	!	!
.	.	2D/	.	2D/	.	.	.
!	!	!	!	!LO:TX:t=P:problem=kreska pseudotaktowa	!	!	!
2r	.	1E	-mi-	1G	-nit	.	.
!LO:TX:t=P:problem=kreska pseudotaktowa	!	!	!	!	!	!	!
2C/	in	.	.	.	.	.	.
*	*	*	*	*	*Xij	*	*
=120	=120	=120	=120	=120	=120	=120	=120
2BB-/	no-	2D/	-ne	1r	.	0ryy	.
*custos:AA	*	*	*	*	*	*	*
2GG/	-mi-	1G	do-	.	.	.	.
!LO:LB:g=original	!	!	!	!	!	!	!
1AA	-ne	.	.	2r	.	.	.
!	!	!LO:TX:t=P:problem=kreska pseudotaktowa	!	!LO:TX:t=P:problem=kreska pseudotaktowa	!	!	!
.	.	2F/	-mi-	2c\	in	.	.
=121	=121	=121	=121	=121	=121	=121	=121
!	!	!LO:TX:t=P:problem=kreska pseudotaktowa	!	!	!	!	!
2GG/	.	1G	-ni	2B-\	no-	0ryy	.
!LO:TX:t=P:problem=kreska pseudotaktowa	!	!	!	!	!	!	!
2G\	do-	.	.	2G/	-mi-	.	.
2F\	-mi-	1r	.	1A	-e	.	.
2D\	-ni	.	.	.	.	.	.
=122	=122	=122	=122	=122	=122	=122	=122
!	!	!	!	!LO:TX:t=P:problem=kreska pseudotaktowa	!	!	!
1E	.	2r	.	1G	.	0ryy	.
!	!	!LO:TX:t=P:problem=kreska pseudotaktowa	!	!	!	!	!
.	.	2G/	do-	.	.	.	.
!LO:TX:t=P:problem=kreska pseudotaktowa	!	!	!	!	!	!	!
1D	.	2A/	.	2r	.	.	.
*	*	*	*	*	*ij	*	*
.	.	2F/	.	2d\	in	.	.
=123	=123	=123	=123	=123	=123	=123	=123
*	*	*custos:A	*	*	*	*	*
!	!	!LO:TX:t=P:problem=kreska pseudotaktowa	!	!	!	!	!
2r	.	1B-	-mi-	2d\	no-	0ryy	.
*	*	*	*	*custos:c	*	*	*
!	!	!	!	!LO:TX:t=P:problem=kreska pseudotaktowa	!	!	!
2GG/	in	.	.	2d\	-mi-	.	.
!	!	!LO:TX:t=P:problem=kreska pseudotaktowa	!	!	!	!	!
!	!	!LO:LB:g=original	!	!LO:LB:g=original	!	!	!
2AA/	no-	1A	-ni	4c\	-e	.	.
*	*	*	*	*	*Xij	*	*
.	.	.	.	4B-\	.	.	.
!LO:TX:t=P:problem=kreska pseudotaktowa	!	!	!	!	!	!	!
2FF/	.	.	.	4A/	.	.	.
!	!	!	!	!LO:TX:t=P:problem=kreska pseudotaktowa	!	!	!
.	.	.	.	4G/	.	.	.
=124	=124	=124	=124	=124	=124	=124	=124
1BB-	-mi-	2r	.	2.F/	do-	0ryy	.
.	.	2d\	in	.	.	.	.
.	.	.	.	4G/	-mi-	.	.
2AA/	-ne	2c\	no-	2A/	.	.	.
!	!	!LO:TX:t=P:problem=kreska pseudotaktowa	!	!LO:TX:t=P:problem=kreska pseudotaktowa	!	!	!
2.BB-/	do-	2d\	-mi-	2.G/	.	.	.
=125	=125	=125	=125	=125	=125	=125	=125
.	.	2G/	-ne	.	.	0ryy	.
4AA/	.	.	.	4F/	.	.	.
4GG/	-mi-	2A/	do-	1F	.	.	.
!LO:TX:t=P:problem=kreska pseudotaktowa	!	!	!	!	!	!	!
4FF/	.	.	.	.	.	.	.
2GG/	-ni	2B-\	.	.	.	.	.
!	!	!	!	!LO:TX:t=P:problem=kreska pseudotaktowa	!	!	!
2G\	in	2c\	-mi-	2E/	.	.	.
=126	=126	=126	=126	=126	=126	=126	=126
*custos:F	*	*	*	*	*	*	*
!	!	!LO:TX:t=P:problem=kreska pseudotaktowa	!	!	!	!	!
2A\	no-	1A	-ni	1D	-mi-	0ryy	.
!LO:TX:t=P:problem=kreska pseudotaktowa	!	!	!	!	!	!	!
!LO:LB:g=original	!	!	!	!	!	!	!
2F\	.	.	.	.	.	.	.
2G\	.	2r	.	2C/	-ni	.	.
*	*	*	*	*	*ij	*	*
2A\	.	2c\	do-	1c	in	.	.
=127	=127	=127	=127	=127	=127	=127	=127
!LO:TX:t=P:problem=kreska pseudotaktowa	!	!	!	!	!	!	!
1G	-mi-	1d	-mi-	.	.	0ryy	.
!	!	!	!	!LO:TX:t=P:problem=kreska pseudotaktowa	!	!	!
.	.	.	.	2B-\	no-	.	.
!	!	!LO:TX:t=P:problem=kreska pseudotaktowa	!	!	!	!	!
2C/	-ne	0c	-ni	2A/	-mi-	.	.
2F\	do-	.	.	2F/	-ne	.	.
=128	=128	=128	=128	=128	=128	=128	=128
2E\	.	.	.	2G/	do-	0ryy	.
2.F\	.	.	.	2A/	-mi-	.	.
*	*	*	*	*custos:F	*	*	*
!	!	!	!	!LO:TX:t=P:problem=kreska pseudotaktowa	!	!	!
.	.	2r	.	1G	-ni	.	.
4E\	.	.	.	.	.	.	.
4D/	.	1c	do-	.	.	.	.
!LO:TX:t=P:problem=kreska pseudotaktowa	!	!	!	!	!	!	!
4C/	.	.	.	.	.	.	.
!	!	!	!	!LO:LB:g=original	!	!	!
=129	=129	=129	=129	=129	=129	=129	=129
1D	-mi-	.	.	2r	.	0ryy	.
!	!	!LO:TX:t=P:problem=kreska pseudotaktowa	!	!LO:TX:t=P:problem=kreska pseudotaktowa	!	!	!
.	.	2B-\	.	2F/	in	.	.
2C/	-ni	2A/	-mi-	2E/	no-	.	.
1F	in	2F/	.	2F/	-mi-	.	.
=130	=130	=130	=130	=130	=130	=130	=130
!	!	!LO:TX:t=P:problem=kreska pseudotaktowa	!	!	!	!	!
.	.	1G	-ni	2C/	-ne	0ryy	.
!LO:TX:t=P:problem=kreska pseudotaktowa	!	!	!	!LO:TX:t=P:problem=kreska pseudotaktowa	!	!	!
2E\	no-	.	.	2G/	do-	.	.
2D/	-mi-	2r	.	2A/	-mi-	.	.
*	*	*custos:E	*	*	*	*	*
2BB-/	-ne	1F	in	2B-/	.	.	.
!	!	!LO:LB:g=original	!	!	!	!	!
=131	=131	=131	=131	=131	=131	=131	=131
!LO:TX:t=P:problem=kreska pseudotaktowa	!	!	!	!LO:TX:t=P:problem=kreska pseudotaktowa	!	!	!
1C	do-	.	.	1G	-ni	0ryy	.
!	!	!LO:TX:t=P:problem=kreska pseudotaktowa	!	!	!	!	!
.	.	2E/	no-	.	.	.	.
4FF/	-mi-	1A	-mi-	2r	.	.	.
4GG/	.	.	.	.	.	.	.
4AA/	.	.	.	2.c\	in	.	.
*custos:C	*	*	*	*	*	*	*
4BB-/	.	.	.	.	.	.	.
!LO:LB:g=original	!	!	!	!	!	!	!
=132	=132	=132	=132	=132	=132	=132	=132
!LO:TX:t=P:problem=kreska pseudotaktowa	!	!	!	!	!	!	!
1C	-ni	2G/	-ne	.	.	0ryy	.
*	*Xij	*	*Xij	*	*	*	*
.	.	.	.	4B-\	.	.	.
.	.	2.c\	do-	1A	no-	.	.
2r	.	.	.	.	.	.	.
.	.	4B-\	.	.	.	.	.
!	!	!LO:TX:t=P:problem=kreska pseudotaktowa	!	!	!	!	!
2FF/	in	2.A/	.	4G/	-mi-	.	.
!	!	!	!	!LO:TX:t=P:problem=kreska pseudotaktowa	!	!	!
.	.	.	.	4F/	.	.	.
=133	=133	=133	=133	=133	=133	=133	=133
!LO:TX:t=P:problem=kreska pseudotaktowa	!	!	!	!	!	!	!
1C	no-	.	.	4E/	.	0ryy	.
.	.	4G/	.	4D/	.	.	.
!	!	!LO:TX:t=P:problem=kreska pseudotaktowa	!	!LO:TX:t=P:problem=kreska pseudotaktowa	!	!	!
.	.	2c\	.	2E/	-ne	.	.
*	*	*	*	*	*Xij	*	*
1D	-mi-	2B-\	.	4D/	do-	.	.
.	.	.	.	4E/	-mi-	.	.
.	.	2.A/	.	4F/	-(ni)	.	.
*	*	*	*	*custos:A	*	*	*
!	!	!	!	!LO:TX:t=P:problem=kreska pseudotaktowa	!	!	!
.	.	.	.	4G/	.	.	.
!	!	!	!	!LO:LB:g=original	!	!	!
=134	=134	=134	=134	=134	=134	=134	=134
1.C	-ne	.	.	4A/	.	0ryy	.
.	.	4G/	.	4B-/	.	.	.
.	.	4E/	.	4c\	.	.	.
!	!	!LO:TX:t=P:problem=kreska pseudotaktowa	!	!LO:TX:t=P:problem=kreska pseudotaktowa	!	!	!
.	.	4F/	.	4d\	.	.	.
.	.	2G/	.	2e\	.	.	.
!	!	!	!	!LO:TX:t=P:problem=kreska pseudotaktowa	!	!	!
2AA/	do-	1A	.	2c\	.	.	.
=135	=135	=135	=135	=135	=135	=135	=135
*lig	*	*	*	*	*	*	*
1D	-mi-	.	.	2d\	.	0ryy	.
.	.	4G/	-mi-	1f	.	.	.
.	.	4F/	-ni	.	.	.	.
1C	.	1G	.	.	.	.	.
.	.	.	.	2e\	do-	.	.
!	!	!	!	!LO:TX:t=P:problem=kreska pseudotaktowa	!	!	!
*Xlig	*	*	*	*	*	*	*
=136	=136	=136	=136	=136	=136	=136	=136
*custos:BB-	*	*custos:B-	*	*	*	*	*
[0FFl	-ni	[0Fl	.	2f\	-mi-	0ryy	.
.	.	.	.	2c\	-ni	.	.
.	.	.	.	1d	.	.	.
=137	=137	=137	=137	=137	=137	=137	=137
*	*	*	*	*custos:d	*	*	*
!	!	!	!	!LO:N:vis=00	!	!	!
0FF]	.	0F]	.	0c	.	0ryy	.
==	==	==	==	==	==	==	==
*-	*-	*-	*-	*-	*-	*-	*-
!!!system-decoration: [(s1,s2,s3,s4)]
!!!RDF**kern: l = terminal long
!!!ENC: Mateusz Solarz
!!!END: 2022-02-01
!!!ENC: Jan Barakat
!!!END: 2022-02-10
